dest/img/logo.svg

<svg fill="none" height="29" viewBox="0 0 103 29" width="103" xmlns="http://www.w3.org/2000/svg"><g clip-rule="evenodd" fill-rule="evenodd"><path d="m90.1596 22.6816h-3.1919v-16.81011h3.1919zm-47.483-5.6143v5.6143h-3.302v-15.93459h6.2518c1.2034 0 2.2619.21888 3.1755.65665.9135.43776 1.6161 1.05974 2.1078 1.86596.4916.80618.7374 1.72368.7374 2.75248 0 1.5613-.5375 2.7925-1.6125 3.6936-1.075.901-2.5627 1.3516-4.4632 1.3516zm0-2.6594h2.9498c.8732 0 1.5391-.2043 1.9977-.6129.4587-.4086.688-.9923.688-1.7511 0-.7806-.2312-1.4117-.6935-1.8933-.4622-.48152-1.1006-.72959-1.9151-.74418h-3.0269zm16.5762-.6895c.3302 0 .7117.0292 1.1447.0875l.044-3.0424c-.3082-.0949-.6384-.1423-.9906-.1423-1.13 0-2.0142.5436-2.6526 1.6307l-.0881-1.4118h-3.0048v11.8415h3.1809v-7.7484c.3742-.8099 1.1631-1.2148 2.3665-1.2148zm8.1559 9.182c-1.7464 0-3.1681-.5326-4.2651-1.5978s-1.6455-2.4843-1.6455-4.2572v-.3065c0-1.1892.2311-2.2526.6934-3.1902.4623-.9375 1.1172-1.6598 1.9647-2.1669s1.8143-.7606 2.9003-.7606c1.629 0 2.9113.5107 3.8468 1.5322.9356 1.0214 1.4034 2.4697 1.4034 4.3448v1.2914h-7.5836c.1027.7734.4127 1.3935.93 1.8605.5174.4669 1.1722.7004 1.9647.7004 1.2255 0 2.183-.4414 2.8728-1.3243l1.5629 1.7402c-.4769.6712-1.1226 1.1947-1.9371 1.5704-.8145.3758-1.7171.5636-2.7077.5636zm-1.8986-9.0835c.3925-.4232.9043-.6348 1.5354-.6348.6751 0 1.1961.1915 1.5629.5746.3669.383.5577.9248.5724 1.6252v.2517h-4.4247c.1101-.788.3614-1.3936.754-1.8167zm19.3222 3.0534c0 1.824-.4164 3.285-1.2492 4.3831-.8329 1.098-1.9574 1.647-3.3736 1.647-1.2034 0-2.1756-.4158-2.9167-1.2476v5.5815h-3.181v-16.3942h2.9498l.1101 1.1601c.7705-.9193 1.7757-1.379 3.0158-1.379 1.4676 0 2.6086.5399 3.4231 1.6197.8145 1.0799 1.2217 2.5682 1.2217 4.4652zm-3.7698-2.7798c.3926.5983.5889 1.4482.5889 2.5499 0 2.4734-.7595 3.7101-2.2784 3.7101-.998 0-1.6914-.3904-2.0803-1.171v-4.8483c.3743-.7587 1.0603-1.1381 2.0583-1.1381.7484 0 1.3189.2991 1.7115.8974zm18.3647-3.2504-2.2013 7.3653-2.2124-7.3653h-3.423l4.1715 11.8743-.3742.974c-.1688.4232-.4018.726-.699.9084-.2971.1824-.7466.2736-1.3483.2736l-.4843-.011v2.3968c.477.1386.9466.2079 1.4089.2079 1.6363 0 2.8104-.7734 3.5221-2.3201l.2642-.6238 4.7876-13.6801z" fill="#000"/><path d="m8.37417 3.67347c2.69523.75613 4.95583 1.39035 4.95583 2.63423v13.4309c-1.168-.6185-2.7015-1.0486-4.3595-1.5137l-.00109-.0003-.0026-.0007c-2.49408-.6997-5.32129-1.4927-7.21839-3.1074-.5922-.5042-1.034337-1.0572-1.324216-1.655-.282193-.5821-.424204-1.2225-.424204-1.9186v-11.5245887l.00512412-.0018214c.04684908-.01639287.09479628-.02040002.13871688-.01275002.032209.00546429.059294.01712142.077594.03315002 2.276575 1.9886401 5.400825 2.8651101 8.151745 3.6363001zm.46238 19.01183c1.22245-.3428 2.37285-.666 3.34425-1.0583.5914.3082.9908.6543 1.1108 1.0732-.3063 1.0688-2.427 1.6637-4.91842 2.3624l-.00096.0003c-2.75068.7715-5.87447 1.6476-8.150785 3.6364-.0183.016-.045385.0273-.077594.0327-.0439206.0081-.0918678.004-.13871688-.0127l-.00512412-.0018v-11.5246c0-.2222.0142743-.4393.043555-.6506.087842.082.178612.1621.271579.2412 1.362286 1.1595 3.015176 1.9336 4.705406 2.5318-.79314.287-1.57493.6149-2.31647 1.0054-.29903.157-.41395.5256-.25657.8236.15775.2977.52815.4124.82755.2554 1.15622-.6087 2.4453-1.0634 3.72414-1.4524.42462.1244.84497.2425 1.25741.3584l.11695.0328.00652.0019c.73295.2055 1.43377.402 2.06543.6047-.58431.1844-1.21702.3624-1.87485.5474l-.06497.0183-.00483.0014c-1.89243.5307-3.9661 1.1123-5.79678 2.0765-.29903.1566-.41395.5257-.25657.8236.15775.298.52815.412.82755.2554 1.71694-.9038 3.72743-1.4681 5.5615-1.9824z" fill="#3bb3bd"/><path d="m16.69 7.10913c-.5915-.30818-.9908-.65425-1.1116-1.07355.3067-1.06828 2.4267-1.66314 4.9177-2.36206l.0011-.00033c2.7509-.77119 5.8752-1.64766 8.1518-3.6363001.0183-.0160286.0454-.02768573.0776-.03315002.0439-.00765.0918-.00364285.139.01275002l.0048.0018214v11.5245887c0 .2225-.0146.4396-.0435.6506-.0883-.0816-.1787-.1621-.2716-.2412-1.3623-1.1591-3.0148-1.9333-4.7054-2.53177.7935-.28706 1.5749-.61492 2.3164-1.00507.2994-.15701.414-.52566.2566-.82365-.1574-.29798-.5281-.41237-.8275-.25536-1.1563.60835-2.4453 1.06298-3.7242 1.45204-.4644-.13588-.9245-.26484-1.3743-.39088l-.0362-.01017c-.7222-.20285-1.4127-.39679-2.0358-.59636.6039-.19053 1.2591-.37449 1.9402-.56574l.0016-.00046c1.893-.53101 3.9679-1.11308 5.7996-2.07779.2994-.15664.414-.52566.2566-.82329-.1574-.29798-.5281-.41237-.8275-.25572-1.7156.90344-3.7243 1.46718-5.5572 1.98159l-.0043.00121-.0006.00015c-1.2219.34274-2.3724.66546-3.3433 1.0581zm3.8072 17.95347c-2.6957-.7559-4.9569-1.3905-4.9569-2.6345v-13.43051c1.1683.61819 2.7027 1.04881 4.3607 1.51401 2.4947.6994 5.3232 1.4932 7.2206 3.108.5926.5042 1.0347 1.0572 1.3249 1.6554.2819.5814.4239 1.2218.4239 1.9179v11.5246l-.0048.0018c-.0472.0167-.0951.0208-.1391.0127-.0322-.0054-.0593-.0167-.0776-.0327-2.2763-1.9888-5.4-2.8649-8.1507-3.6364z" fill="#f8463d"/></g></svg>

<svg width="103" height="29" viewBox="0 0 103 29" fill="none" xmlns="http://www.w3.org/2000/svg">
<path fill-rule="evenodd" clip-rule="evenodd" d="M90.1596 22.6816H86.9677V5.87149H90.1596V22.6816ZM42.6766 17.0673V22.6816H39.3746V6.74701H45.6264C46.8298 6.74701 47.8883 6.96589 48.8019 7.40366C49.7154 7.84142 50.418 8.4634 50.9097 9.26962C51.4013 10.0758 51.6471 10.9933 51.6471 12.0221C51.6471 13.5834 51.1096 14.8146 50.0346 15.7157C48.9596 16.6167 47.4719 17.0673 45.5714 17.0673H42.6766ZM42.6766 14.4079H45.6264C46.4996 14.4079 47.1655 14.2036 47.6241 13.795C48.0828 13.3864 48.3121 12.8027 48.3121 12.0439C48.3121 11.2633 48.0809 10.6322 47.6186 10.1506C47.1564 9.66908 46.518 9.42101 45.7035 9.40642H42.6766V14.4079ZM59.2528 13.7184C59.583 13.7184 59.9645 13.7476 60.3975 13.8059L60.4415 10.7635C60.1333 10.6686 59.8031 10.6212 59.4509 10.6212C58.3209 10.6212 57.4367 11.1648 56.7983 12.2519L56.7102 10.8401H53.7054V22.6816H56.8863V14.9332C57.2605 14.1233 58.0494 13.7184 59.2528 13.7184ZM67.4087 22.9004C65.6623 22.9004 64.2406 22.3678 63.1436 21.3026C62.0466 20.2374 61.4981 18.8183 61.4981 17.0454V16.7389C61.4981 15.5497 61.7292 14.4863 62.1915 13.5487C62.6538 12.6112 63.3087 11.8889 64.1562 11.3818C65.0037 10.8747 65.9705 10.6212 67.0565 10.6212C68.6855 10.6212 69.9678 11.1319 70.9033 12.1534C71.8389 13.1748 72.3067 14.6231 72.3067 16.4982V17.7896H64.7231C64.8258 18.563 65.1358 19.1831 65.6531 19.6501C66.1705 20.117 66.8253 20.3505 67.6178 20.3505C68.8433 20.3505 69.8008 19.9091 70.4906 19.0262L72.0535 20.7664C71.5766 21.4376 70.9309 21.9611 70.1164 22.3368C69.3019 22.7126 68.3993 22.9004 67.4087 22.9004ZM65.5101 13.8169C65.9026 13.3937 66.4144 13.1821 67.0455 13.1821C67.7206 13.1821 68.2416 13.3736 68.6084 13.7567C68.9753 14.1397 69.1661 14.6815 69.1808 15.3819V15.6336H64.7561C64.8662 14.8456 65.1175 14.24 65.5101 13.8169ZM84.8323 16.8703C84.8323 18.6943 84.4159 20.1553 83.5831 21.2534C82.7502 22.3514 81.6257 22.9004 80.2095 22.9004C79.0061 22.9004 78.0339 22.4846 77.2928 21.6528V27.2343H74.1118V10.8401H77.0616L77.1717 12.0002C77.9422 11.0809 78.9474 10.6212 80.1875 10.6212C81.6551 10.6212 82.7961 11.1611 83.6106 12.2409C84.4251 13.3208 84.8323 14.8091 84.8323 16.7061V16.8703ZM81.0625 14.0905C81.4551 14.6888 81.6514 15.5387 81.6514 16.6404C81.6514 19.1138 80.8919 20.3505 79.373 20.3505C78.375 20.3505 77.6816 19.9601 77.2927 19.1795V14.3312C77.667 13.5725 78.353 13.1931 79.351 13.1931C80.0994 13.1931 80.6699 13.4922 81.0625 14.0905ZM99.4272 10.8401L97.2259 18.2054L95.0135 10.8401H91.5905L95.762 22.7144L95.3878 23.6884C95.219 24.1116 94.986 24.4144 94.6888 24.5968C94.3917 24.7792 93.9422 24.8704 93.3405 24.8704L92.8562 24.8594V27.2562C93.3332 27.3948 93.8028 27.4641 94.2651 27.4641C95.9014 27.4641 97.0755 26.6907 97.7872 25.144L98.0514 24.5202L102.839 10.8401H99.4272Z" fill="black"/>
<path fill-rule="evenodd" clip-rule="evenodd" d="M8.37417 3.67347C11.0694 4.4296 13.33 5.06382 13.33 6.3077V19.7386C12.162 19.1201 10.6285 18.69 8.9705 18.2249L8.96941 18.2246L8.96681 18.2239C6.47273 17.5242 3.64552 16.7312 1.74842 15.1165C1.15622 14.6123 0.714083 14.0593 0.424204 13.4615C0.142011 12.8794 0 12.239 0 11.5429V0.0183113L0.00512412 0.0164899C0.0519732 9.7027e-05 0.0999204 -0.00391012 0.143841 0.00373988C0.17605 0.00920417 0.203135 0.0208613 0.221435 0.0368899C2.49801 2.02553 5.62226 2.902 8.37318 3.67319L8.37417 3.67347ZM8.83655 22.6853C10.059 22.3425 11.2094 22.0193 12.1808 21.627C12.7722 21.9352 13.1716 22.2813 13.2916 22.7002C12.9853 23.769 10.8646 24.3639 8.37318 25.0626L8.37222 25.0629C5.62154 25.8344 2.49775 26.7105 0.221435 28.6993C0.203135 28.7153 0.17605 28.7266 0.143841 28.732C0.0999204 28.7401 0.0519732 28.736 0.00512412 28.7193L0 28.7175V17.1929C0 16.9707 0.0142743 16.7536 0.043555 16.5423C0.131397 16.6243 0.222167 16.7044 0.315134 16.7835C1.67742 17.943 3.33031 18.7171 5.02054 19.3153C4.2274 19.6023 3.44561 19.9302 2.70407 20.3207C2.40504 20.4777 2.29012 20.8463 2.4475 21.1443C2.60525 21.442 2.97565 21.5567 3.27505 21.3997C4.43127 20.791 5.72035 20.3363 6.99919 19.9473C7.42381 20.0717 7.84416 20.1898 8.2566 20.3057L8.37355 20.3385L8.38007 20.3404C9.11302 20.5459 9.81384 20.7424 10.4455 20.9451C9.86119 21.1295 9.22848 21.3075 8.57065 21.4925L8.50568 21.5108L8.50085 21.5122C6.60842 22.0429 4.53475 22.6245 2.70407 23.5887C2.40504 23.7453 2.29012 24.1144 2.4475 24.4123C2.60525 24.7103 2.97565 24.8243 3.27505 24.6677C4.99199 23.7639 7.00248 23.1996 8.83655 22.6853Z" fill="#3BB3BD"/>
<path fill-rule="evenodd" clip-rule="evenodd" d="M16.69 7.10913C16.0985 6.80095 15.6992 6.45488 15.5784 6.03558C15.8851 4.9673 18.0051 4.37244 20.4961 3.67352L20.4972 3.67319C23.2481 2.902 26.3724 2.02553 28.649 0.0368899C28.6673 0.0208613 28.6944 0.00920417 28.7266 0.00373988C28.7705 -0.00391012 28.8184 9.70269e-05 28.8656 0.0164899L28.8704 0.0183113V11.5429C28.8704 11.7654 28.8558 11.9825 28.8269 12.1935C28.7386 12.1119 28.6482 12.0314 28.5553 11.9523C27.193 10.7932 25.5405 10.019 23.8499 9.42053C24.6434 9.13347 25.4248 8.80561 26.1663 8.41546C26.4657 8.25845 26.5803 7.8898 26.4229 7.59181C26.2655 7.29383 25.8948 7.17944 25.5954 7.33645C24.4391 7.9448 23.1501 8.39943 21.8712 8.78849C21.4068 8.65261 20.9467 8.52365 20.4969 8.39761L20.4607 8.38744C19.7385 8.18459 19.048 7.99065 18.4249 7.79108C19.0288 7.60055 19.684 7.41659 20.3651 7.22534L20.3667 7.22488C22.2597 6.69387 24.3346 6.1118 26.1663 5.14709C26.4657 4.99045 26.5803 4.62143 26.4229 4.3238C26.2655 4.02582 25.8948 3.91143 25.5954 4.06808C23.8798 4.97152 21.8711 5.53526 20.0382 6.04967L20.0339 6.05088L20.0333 6.05103C18.8114 6.39377 17.6609 6.71649 16.69 7.10913ZM20.4972 25.0626C17.8015 24.3067 15.5403 23.6721 15.5403 22.4281V8.99759C16.7086 9.61578 18.243 10.0464 19.901 10.5116C22.3957 11.211 25.2242 12.0048 27.1216 13.6196C27.7142 14.1238 28.1563 14.6768 28.4465 15.275C28.7284 15.8564 28.8704 16.4968 28.8704 17.1929V28.7175L28.8656 28.7193C28.8184 28.736 28.7705 28.7401 28.7265 28.732C28.6943 28.7266 28.6672 28.7153 28.6489 28.6993C26.3726 26.7105 23.2489 25.8344 20.4982 25.0629L20.4972 25.0626Z" fill="#F8463D"/>
</svg>
